client/Assets/Features/GamePlay/Options/Levels/Level_15/Level_15.svg

<?xml version="1.0" encoding="UTF-8" standalone="no"?>
<svg
   width="1200"
   height="1200"
   viewBox="0 0 1200 1200"
   fill="none"
   version="1.1"
   id="svg7"
   xmlns="http://www.w3.org/2000/svg"
   xmlns:svg="http://www.w3.org/2000/svg">
  <defs
     id="defs7" />
  <path
     fill-rule="evenodd"
     clip-rule="evenodd"
     d="m 600,1009.96 c -55.574,32.02 -126.238,34.36 -185.781,-0.02 -59.542,-34.379 -92.852,-96.743 -92.906,-160.884 55.575,-32.024 126.239,-34.359 185.781,0.018 59.543,34.377 92.853,96.741 92.906,160.886 z"
     fill="#017638"
     id="path1" />
  <path
     fill-rule="evenodd"
     clip-rule="evenodd"
     d="m 599.999,1009.94 c 55.574,32.02 126.238,34.36 185.781,-0.02 59.542,-34.376 92.852,-96.741 92.906,-160.881 -55.575,-32.024 -126.239,-34.359 -185.781,0.017 -59.543,34.377 -92.853,96.742 -92.906,160.884 z"
     fill="#12a456"
     id="path2" />
  <path
     fill-rule="evenodd"
     clip-rule="evenodd"
     d="m 599.07,438.088 c 55.521,-32.117 92.875,-92.146 92.875,-160.9 0,-68.754 -37.354,-128.783 -92.875,-160.9 -55.52,32.117 -92.875,92.146 -92.875,160.9 0,68.754 37.355,128.783 92.875,160.9 z"
     fill="#fffdda"
     id="path3" />
  <path
     fill-rule="evenodd"
     clip-rule="evenodd"
     d="m 600,788.174 c -55.574,32.024 -126.238,34.359 -185.781,-0.018 -59.542,-34.377 -92.852,-96.741 -92.906,-160.882 55.575,-32.024 126.239,-34.359 185.781,0.018 59.543,34.377 92.853,96.741 92.906,160.882 z"
     fill="#20cd70"
     id="path4" />
  <path
     fill-rule="evenodd"
     clip-rule="evenodd"
     d="m 599.999,788.156 c 55.574,32.024 126.238,34.359 185.781,-0.018 59.542,-34.376 92.852,-96.741 92.906,-160.882 -55.575,-32.024 -126.239,-34.359 -185.781,0.018 -59.543,34.377 -92.853,96.741 -92.906,160.882 z"
     fill="#36f790"
     id="path5" />
  <path
     fill-rule="evenodd"
     clip-rule="evenodd"
     d="m 600,566.392 c -55.574,32.024 -126.238,34.359 -185.781,-0.018 -59.542,-34.377 -92.852,-96.741 -92.906,-160.882 55.575,-32.024 126.239,-34.359 185.781,0.018 59.543,34.376 92.853,96.741 92.906,160.882 z"
     fill="#aeff7c"
     id="path6" />
  <path
     fill-rule="evenodd"
     clip-rule="evenodd"
     d="m 599.999,566.374 c 55.574,32.024 126.238,34.359 185.781,-0.018 59.542,-34.377 92.852,-96.741 92.906,-160.882 -55.575,-32.024 -126.239,-34.359 -185.781,0.018 -59.543,34.377 -92.853,96.741 -92.906,160.882 z"
     fill="#e1ffac"
     id="path7" />
</svg>

<svg width="1200" height="1200" viewBox="0 0 1200 1200" fill="none" xmlns="http://www.w3.org/2000/svg">
<path fill-rule="evenodd" clip-rule="evenodd" d="M600 1009.96C544.426 1041.98 473.762 1044.32 414.219 1009.94C354.677 975.561 321.367 913.197 321.313 849.056C376.888 817.032 447.552 814.697 507.094 849.074C566.637 883.451 599.947 945.815 600 1009.96Z" fill="#017638"/>
<path fill-rule="evenodd" clip-rule="evenodd" d="M599.999 1009.94C655.573 1041.96 726.237 1044.3 785.78 1009.92C845.322 975.544 878.632 913.179 878.686 849.039C823.111 817.015 752.447 814.68 692.905 849.056C633.362 883.433 600.052 945.798 599.999 1009.94Z" fill="#12A456"/>
<path fill-rule="evenodd" clip-rule="evenodd" d="M599.07 438.088C654.591 405.971 691.945 345.942 691.945 277.188C691.945 208.434 654.591 148.405 599.07 116.288C543.55 148.405 506.195 208.434 506.195 277.188C506.195 345.942 543.55 405.971 599.07 438.088Z" fill="#FFFDDA"/>
<path fill-rule="evenodd" clip-rule="evenodd" d="M600 788.174C544.426 820.198 473.762 822.533 414.219 788.156C354.677 753.779 321.367 691.415 321.313 627.274C376.888 595.25 447.552 592.915 507.094 627.292C566.637 661.669 599.947 724.033 600 788.174Z" fill="#20CD70"/>
<path fill-rule="evenodd" clip-rule="evenodd" d="M599.999 788.156C655.573 820.18 726.237 822.515 785.78 788.138C845.322 753.762 878.632 691.397 878.686 627.256C823.111 595.232 752.447 592.897 692.905 627.274C633.362 661.651 600.052 724.015 599.999 788.156Z" fill="#36F790"/>
<path fill-rule="evenodd" clip-rule="evenodd" d="M600 566.392C544.426 598.416 473.762 600.751 414.219 566.374C354.677 531.997 321.367 469.633 321.313 405.492C376.888 373.468 447.552 371.133 507.094 405.51C566.637 439.886 599.947 502.251 600 566.392Z" fill="#AEFF7C"/>
<path fill-rule="evenodd" clip-rule="evenodd" d="M599.999 566.374C655.573 598.398 726.237 600.733 785.78 566.356C845.322 531.979 878.632 469.615 878.686 405.474C823.111 373.45 752.447 371.115 692.905 405.492C633.362 439.869 600.052 502.233 599.999 566.374Z" fill="#E1FFAC"/>
</svg>
